X:3141
T:Jolly Clamdiggers, The
O:england
S:John Walsh <walsh@MATH.UBC.CA>, irtrad-l, 4/94
R:reel
E:7.5
I:speed 350
M:C|
K:D
d2 FB AFEF|D2dc BABc|dF~F2 dFAF|GBAG FDFA|d2 FB AFEF|D2dc BABc|
dF~F2 dFAF|GBAF D2 AB||
d2 fd egfe|A2 (3cBA eAcA|defg ~a3 f|afeg fddA|d2 fd egfe|A2 (3cBA eAcA|
defg ~a3 f|afeg fd ~d2||


